!!!OTL: WELE GROSS WUNDER SCHAUEN WILL
!!!ARE: Europa, Mitteleuropa, Schweiz, Entlibuch, Escholdsmatt
!!!SCT: E0018
!!!YEM: Copyright 1995, estate of Helmut Schaffrath.
**kern
*ICvox
*Ivox
*M3/4
*k[]
*C:
{8G
=1
8c
8B
4c
4d
=2
8B
8F#
4.G}
{8c
=3
8f
8g
8f
8e
4c
=4
4c
4d
8r}
{8c
=5
8e
8f
4.g
8c
=6
8d
8e
4.f}
{8d
=7
8e
8c
4d
4c
=8
4B
4c
8r}
==
!!!AGN: Maerchen -, Zauber - Lied, Tannhaeuser - Sage, Ballade ?
!!!ONB: ESAC (Essen Associative Code) Database: ERK1
!!!AMT: simple triple
!!!AIN: vox
!!!EED: Helmut Schaffrath
!!!EEV: 1.0
*-
